X:1
T:Ditte che v'ho
T:Dite che v'ho
T:Piero Benedetti
T:Source : Musische di Piero Benedetti---Fiorenza---Heredes di C.Marescotti---1611. Editor : André Vierendeels (18/05/15).
T:Notes : Original clefs C1, F4 Figures in BC are notated in original print
C:Piero Benedetti
%%score 1 2
L:1/8
Q:1/4=80
M:4/4
K:F
V:1 treble nm="Soprano" snm="S"
V:2 bass nm="BC" snm="BC"
V:1
 d2 A4 z d | _e3 d c2 B2 | z2 A2 ^FFFF | ^G4 G4 | z2 e2 ^cccc | d4 d4 | z2 GA B2 BB | c4- c3 d | %8
w: Di- te che|v'ho fatt' i- o|dol- cis- si- mi miei|lu- mi,|dol- cis- si- mi miei|lu- mi,|che vo- le- te ch'in|duol _ spie-|
 d4- d3 e | ^F4 F4 | z2 DE ^F2 FG | A2 A2 z2 A2- | A2 F>E E4 | D8 |: d3 c _e4- | e2 d>c c4 | %16
w: ta- * t'è|ri- o|è ta- cen- do'et a-|man- do io|_ mi con- su-|mi,|O mie lu-|* fi- fe- re|
 c4 z2 cA | B2 AG A4 | A4 _e4 | dcBA A2- A>G- | A4 z A d2 | A2 AB G4 | G4 z c c2- | cB B4- BA | %24
w: ne fon- ti|d'o- gni mio be-|ne, fon-|ti del- le mie pe- * ne,|_ la vi-|ta vi fun- ge-|te è poi|_ la mor- * te|
 A8 | G8 | z2 A4 EE | F4 ^C4 | z2 d4 AA | B4 ^F4 | z2 AA A2 B2 | c4 c4 | z2 GG G2 GA | ^F4 A4- | %34
w: fe-|te,|e- glio'e- ra|mor- te,|me- glio'e- ra|mor- te|non spe- ran- do|vi- ta,|che spe- ran- do pie-|ta per-|
 A2 D>E E4 | D8 :| %36
w: * der la vi-|ta.|
V:2
 D,8 | C,8 |"^#" D,6 =B,,2 | E,4 E,4 | E,4 A,,4 | ^F,,8 | G,,8 | E,4 F,4 | ^F,4 ^C,4 |"^#" D,8 | %10
"^#" D,8 |"^#" D,8 |"^#" G,,4 A,,2 A,,2 |"^#" D,8 |: B,4 G,4 | _E,4 F,4 | F,4 F,4 |"^#" G,4 D,4 | %18
"^#" D,4 C,4 | D,4 _E,2 E,2 |"^6""^#""^#" D,4 D,4 |"^#""^-natural" D,4 G,,4 |"^-natural" G,,4 F,4 | %23
 _E,4 =B,,2 C,2 |"^6""^#" D,4 D,4 |"^-natural" G,,8 |"^#" A,,8 |"^#""^4" A,,2 A,,2 A,,4 |"^#" D,8 | %29
"^#""^4" D,2 D,2 D,4 |"^#" D,6 G,2 | F,4 F,4 | C,4 =B,,4 | D,8 |"^6""^#" ^F,,4 G,,2 G,,2 | %35
"^#" D,8 :| %36

